X: 52
T:Peacock's Feather
C:Arrangement by Rick Weidley
M:4/4
F:http://blackrosetheband.googlepages.com/ABCTUNES.ABC May 2009
R:
K:C
e>d|:"Am"(3cBA "Em"(3BAG "Am"A2 A>B|(3cdc B>c "G"d2 c>d|"Am"e>a a>b a>g e>d| c2 E>F G2 e>d|
"Am"(3cBA "Em"(3BAG "Am"A2 A>B|(3cdc B>c "G"d2 c>d|"Am"e>a a>b a>g e>d|c2 A2 A2 z2:||
|: "G"B>d g>B "F"A>c a>g| a>g e>^c "G"d2 e>f| g2 e>g "Am"a>g e>d|(3cdc E>F "G"G2 e>d|
"Am"(3cBA "Em"(3BAG "Am"A2 A>B|(3cdc B>c "G"d2 c>d|"Am"e>a a>b a>g e>d|c2 A2 A4:||

